X:1
T:O That Will Be Glory
T:O That Will Be Glory
T:Charles Hutchinson Gabriel
T:Charles Hutchinson Gabriel, 1900
T:Public Domain Courtesy of the Cyber Hymnal™
T:Public Domain Courtesy of the Cyber Hymnal™
C:Charles Hutchinson Gabriel
Z:Public Domain
Z:Courtesy of the Cyber Hymnal™
%%score ( 1 2 ) ( 3 4 )
L:1/8
Q:1/4=170
M:3/4
K:Ab
V:1 treble 
V:2 treble 
V:3 bass 
V:4 bass 
V:1
 [CE]2 [CA]2 [CG]2 | [CF]2 [CE]2 [B,D]2 | [A,C]2 [CE]2 [CA]2 | [Ec]6 | [Ec]2 [DB]2 [D=A]2 | %5
w: 1.~When all my|la- bors and|tria- ls are|o’er,|And I am|
w: 2.~When, by the|gift of His|in- fi- nite|grace,|I am ac-|
w: 3.~Friends will be|there I have|loved long a-|go;|Joy like a|
 [Ec]2 [DB]2 [DG]2 | [DB]2 [CA]2 [DF]2 | [CE]6 | [B,E]2 [B,=D]2 [B,E]2 | [=DF]2 [EG]2 [FA]2 | %10
w: safe on that|beau- ti- ful|shore,|Just to be|near the dear|
w: cord- ed in|hea- ven a|place,|Just to be|there and to|
w: ri- ver a-|round me will|flow;|Yet just a|smile from my|
 [EG]2 [EG]2 [FA]2 | [GB]6 | [GB]2 [B=d]2 [Ac]2 | [GB]2 [FA]2 [EG]2 | [=DA]2 [DG]2 [DF]2 | %15
w: Lord I a-|dore,|Will through the|ag- es be|glo- ry for|
w: look on His|face,|Will through the|ag- es be|glo- ry for|
w: Sav- ior, I|know,|Will through the|ag- es be|glo- ry for|
 (E2 [CE]2 [DE]2) ||"^Refrain" c2 c2 c2 | c6 | c2 B2 c2 | d6 | d2 d2 d2 | d6 | d2 e2 B2 | c6 | %24
w: me. * *|||||||||
w: me. * *|||||||||
w: me. * *|||||||||
 e2 c2 B2 | A2 [DB]2 [Ec]2 | [Fd]2 [DF]2 [FA]2 | [=Ec]6 | [DB]2 [DA]2 [DF]2 | E2 [Ee]2 [Fdf]2 | %30
w: ||||||
w: ||||||
w: ||||||
 [Ece]2 [CEc]2 [DBd]2 | [CAc]6 |] %32
w: ||
w: ||
w: ||
V:2
 x6 | x6 | x6 | x6 | x6 | x6 | x6 | x6 | x6 | x6 | x6 | x6 | x6 | x6 | x6 | x6 || E6- | %17
 (E2 A2 F2) | E6 | (E2 G2 F2) | E6 | (E2 G2 F2) | E6 | (E2 A2 F2) | E6- | E2 x4 | x6 | x6 | x6 | %29
 x6 | x6 | x6 |] %32
V:3
 [A,,A,]2 [A,,A,]2 [A,,A,]2 | [A,,A,]2 [A,,A,]2 [A,,E,]2 | [A,,E,]2 [A,,A,]2 [A,,E,]2 | [A,,A,]6 | %4
w: ~ ~ ~|~ ~ ~|~ ~ ~|~|
 [E,A,]2 [E,G,]2 [E,G,]2 | [E,G,]2 [E,G,]2 [E,B,]2 | [A,,A,]2 [A,,A,]2 [A,,A,]2 | [A,,A,]6 | %8
w: ~ ~ ~|~ ~ ~|~ ~ ~|~|
 [B,,G,]2 [B,,F,]2 [B,,G,]2 | [B,,B,]2 [B,,B,]2 [B,,B,]2 | [E,B,]2 [E,B,]2 [E,B,]2 | [E,B,]6 | %12
w: ~ ~ ~|~ ~ ~|~ ~ ~|~|
 [B,,B,]2 [B,,B,]2 [B,,B,]2 | [B,,B,]2 [B,,B,]2 [B,,B,]2 | [B,,C]2 [B,,B,]2 [B,,A,]2 | %15
w: ~ ~ ~|~ ~ ~|~ ~ ~|
 E,2- [E,-A,]2 [E,B,]2 || [A,,A,]2 [C,A,]2 [E,A,]2 | A,6 | A,2 [G,D]2 [A,C]2 | (B,4 A,2) | %20
w: ~ * *|O that will|be|glo- ry for|me, *|
 [E,G,]2 [E,G,]2 [E,G,]2 | (G,2 B,2 A,2) | [E,G,]2 [E,G,]2 [E,G,]2 | A,6 | [A,C]2 A,2 [A,D]2 | %25
w: Glo- ry for|me, * *|glo- ry for|me,|When by His|
 [A,C]2 A,2 A,2 | [D,A,]2 [D,A,]2 [D,F,]2 | [C,G,]6 | [D,F,]2 [D,F,]2 [D,A,]2 | %29
w: grace I shall|look on His|face,|That will be|
 [C,A,]2 [C,A,]2 [D,A,]2 | [E,A,]2 [E,A,]2 [E,G,]2 | [A,,A,]6 |] %32
w: glo- ry, be|glo- ry for|me.|
V:4
 x6 | x6 | x6 | x6 | x6 | x6 | x6 | x6 | x6 | x6 | x6 | x6 | x6 | x6 | x6 | x6 || x6 | A,6 | x6 | %19
 E,6 | x6 | E,6 | x6 | A,6 | x2 A,2 x2 | x2 A,2 A,2 | x6 | x6 | x6 | x6 | x6 | x6 |] %32

